svgs/sharp-light/mug-tea-saucer.svg

<svg xmlns="http://www.w3.org/2000/svg" viewBox="0 0 640 512"><!--! Font Awesome Pro 6.6.0 by @fontawesome - https://fontawesome.com License - https://fontawesome.com/license (Commercial License) Copyright 2024 Fonticons, Inc. --><path d="M240 64l176 0 16 0 16 0 0 160 0 32 0 96-320 0 0-288 80 0 0 40.5-42.2 35.2-5.8 4.8 0 7.5 0 88 0 16 16 0 96 0 16 0 0-16 0-88 0-7.5-5.8-4.8L240 104.5 240 64zM224 32l-96 0L96 32l0 32 0 288 0 32 32 0 320 0 32 0 0-32 0-96 48 0c61.9 0 112-50.1 112-112s-50.1-112-112-112l-48 0-32 0-16 0-16 0L224 32zM480 224l0-160 48 0c44.2 0 80 35.8 80 80s-35.8 80-80 80l-48 0zM0 448l0 32 16 0 544 0 16 0 0-32-16 0L16 448 0 448zM192 224l0-64.5 32-26.7 32 26.7 0 64.5-64 0z"/></svg>

<svg xmlns="http://www.w3.org/2000/svg" viewBox="0 0 640 512"><!--! Font Awesome Pro 6.4.0 by @fontawesome - https://fontawesome.com License - https://fontawesome.com/license (Commercial License) Copyright 2023 Fonticons, Inc. --><path d="M240 64H416h16 16V224v32 96H128V64h80v40.5l-42.2 35.2-5.8 4.8V152v88 16h16 96 16V240 152v-7.5l-5.8-4.8L240 104.5V64zM224 32H128 96V64 352v32h32H448h32V352 256h48c61.9 0 112-50.1 112-112s-50.1-112-112-112H480 448 432 416 224zM480 224V64h48c44.2 0 80 35.8 80 80s-35.8 80-80 80H480zM0 448v32H16 560h16V448H560 16 0zM192 224V159.5l32-26.7 32 26.7V224H192z"/></svg>
